symbols/amenity/bureau_de_change.svg

<?xml version="1.0" encoding="UTF-8" standalone="no"?>
<svg
   xmlns:dc="http://purl.org/dc/elements/1.1/"
   xmlns:cc="http://creativecommons.org/ns#"
   xmlns:rdf="http://www.w3.org/1999/02/22-rdf-syntax-ns#"
   xmlns:svg="http://www.w3.org/2000/svg"
   xmlns="http://www.w3.org/2000/svg"
   viewBox="0 0 14 14"
   height="14"
   width="14"
   id="svg109"
   version="1.1">
  <metadata
     id="metadata115">
    <rdf:RDF>
      <cc:Work
         rdf:about="">
        <dc:format>image/svg+xml</dc:format>
        <dc:type
           rdf:resource="http://purl.org/dc/dcmitype/StillImage" />
        <dc:title></dc:title>
      </cc:Work>
    </rdf:RDF>
  </metadata>
  <defs
     id="defs113" />
  <g
     id="text4497-3"
     style="font-style:normal;font-weight:normal;font-size:61.96160507px;line-height:1.25;font-family:sans-serif;letter-spacing:0px;word-spacing:0px;fill:#000000;fill-opacity:1;stroke:none;stroke-width:1.54904032"
     transform="scale(1.019247,0.98111647)"
     aria-label="€">
    <path
       id="path823"
       transform="scale(0.98111645,1.019247)"
       d="M 3 0 L 3 1.0292969 C 2.5793307 1.0585054 2.1790365 1.1157392 1.8183594 1.2304688 C 1.3344976 1.3843825 0.96481865 1.6115635 0.71289062 1.9101562 C 0.46096262 2.2056708 0.3359375 2.5235457 0.3359375 2.8652344 C 0.3359375 3.1761403 0.43863641 3.4585188 0.64257812 3.7109375 C 0.85051871 3.9602778 1.1641043 4.1685854 1.5839844 4.3378906 C 1.8637112 4.4522018 2.3594057 4.5750388 3 4.703125 L 3 7.1484375 C 2.768869 7.1153663 2.55059 7.0658663 2.3457031 6.9980469 C 1.9458174 6.8626027 1.6489765 6.6861825 1.4570312 6.4707031 C 1.269085 6.2521455 1.1496415 5.975329 1.0976562 5.6367188 L 0 5.7089844 C 0.01599543 6.161491 0.17655558 6.5695292 0.48046875 6.9296875 C 0.78838076 7.2867675 1.2102468 7.5538819 1.7460938 7.7324219 C 2.1019935 7.8501265 2.5328678 7.9149717 3 7.9550781 L 3 9 L 4 9 L 4 7.9804688 C 4.5238972 7.9592342 5.0119609 7.8870736 5.4414062 7.7363281 C 5.9452622 7.557788 6.3297328 7.3112031 6.5976562 6.9941406 C 6.8655797 6.6739999 7 6.3328145 7 5.9726562 C 7 5.6094197 6.8786959 5.2887636 6.6347656 5.0117188 C 6.3908352 4.7315956 6.0118538 4.5019307 5.5 4.3203125 C 5.2139993 4.2202397 4.679568 4.1030685 4 3.9765625 L 4 1.8378906 C 4.4092004 1.8831473 4.7646065 1.9626244 5.0078125 2.1171875 C 5.3557131 2.3357451 5.5611109 2.6600102 5.6210938 3.0878906 L 6.7363281 3.0214844 C 6.7163339 2.6243868 6.572611 2.2690623 6.3046875 1.9550781 C 6.036764 1.641094 5.6522008 1.404211 5.1523438 1.2441406 C 4.8099838 1.1314964 4.4167049 1.0719796 4 1.0371094 L 4 0 L 3 0 z M 10.597656 0 L 8 1.5 L 10.597656 3 L 10.597656 1.9980469 C 11.383924 2.0514049 11.994824 2.7041116 11.996094 3.4921875 C 11.995686 3.6653757 11.96529 3.8371851 11.90625 4 L 12.941406 4 C 12.976926 3.8330401 12.995244 3.6628815 12.996094 3.4921875 C 12.995104 2.1516977 11.93704 1.0505504 10.597656 0.99609375 L 10.597656 0 z M 3 1.828125 L 3 3.7714844 C 2.4149492 3.6469524 1.9688676 3.5254575 1.7988281 3.40625 C 1.5708932 3.2492579 1.4570313 3.0478713 1.4570312 2.8046875 C 1.4570312 2.5245644 1.6175914 2.2868533 1.9375 2.0898438 C 2.1764557 1.9422331 2.5542911 1.8668391 3 1.828125 z M 4 4.9140625 C 4.2946808 4.9748308 4.7181531 5.0535208 4.8457031 5.0917969 C 5.213598 5.1995366 5.4787176 5.3321171 5.6386719 5.4921875 C 5.7986262 5.6491796 5.8789063 5.834474 5.8789062 6.046875 C 5.8789063 6.2561978 5.794905 6.4503663 5.6269531 6.6289062 C 5.4629998 6.804368 5.2109966 6.9433388 4.8710938 7.0449219 C 4.6137933 7.1218185 4.3168777 7.1590471 4 7.1777344 L 4 4.9140625 z M 12.070312 5 C 11.272664 5 10.542827 5.1731994 9.8808594 5.5214844 C 8.8077316 6.0834897 8.2982708 6.7650052 7.8886719 8 L 7.171875 8 L 7 9 L 7.8085938 9 C 7.80883 9.3387519 7.7926624 9.6596751 7.8203125 10 L 7.171875 10 L 7 11 L 7.9433594 11 C 8.0379262 11.42744 8.0461631 11.49413 8.1777344 11.794922 C 8.8314789 13.283049 10.192337 14 12.050781 14 C 12.671633 14 13.239956 13.885802 13.753906 13.65625 L 13.753906 12.433594 C 13.322189 12.821457 12.721995 13.013672 11.953125 13.013672 C 11.40217 13.013672 10.888849 12.878556 10.416016 12.605469 C 9.7581589 12.225522 9.3445622 11.906332 9.171875 11 L 12.839844 11 L 13.013672 10 L 9.0410156 10 C 9.0382229 9.6668555 9.0283749 9.3332043 9.0410156 9 L 13.179688 9 L 13.345703 8 L 9.140625 8 C 9.181741 7.6754618 9.2404535 7.6003927 9.4707031 7.2402344 C 9.6968411 6.8919494 10.027052 6.6567706 10.306641 6.4667969 C 10.775363 6.1462164 11.354173 5.9863281 12.044922 5.9863281 C 12.68222 5.9863281 13.252291 6.1862013 13.753906 6.5859375 L 14 5.4804688 C 13.477827 5.1598881 12.83507 5 12.070312 5 z M 1.0585938 9.9980469 C 1.0230738 10.165006 1.0047563 10.335165 1.0039062 10.505859 C 1.0048963 11.846349 2.0629598 12.947496 3.4023438 13.001953 L 3.4023438 14 L 6 12.5 L 3.4023438 11 L 3.4023438 12 C 2.6160757 11.94664 2.0051762 11.293935 2.0039062 10.505859 C 2.0043144 10.332671 2.034711 10.160861 2.09375 9.9980469 L 1.0585938 9.9980469 z "
       style="font-style:normal;font-variant:normal;font-weight:normal;font-stretch:normal;font-size:12.39232254px;font-family:Arial;-inkscape-font-specification:Arial;fill:#000000;stroke-width:1.54904032" />
  </g>
  <g
     transform="matrix(0.30711225,0,0,0.23641161,-0.12796482,1.0253412)"
     id="text840"
     style="font-style:normal;font-weight:normal;font-size:40px;line-height:1.25;font-family:sans-serif;letter-spacing:0px;word-spacing:0px;fill:#000000;fill-opacity:1;stroke:none"
     aria-label="S" />
</svg>

<?xml version="1.0" encoding="UTF-8"?>
<svg version="1.1" width="14" height="14" viewBox="0 0 14 14" xmlns="http://www.w3.org/2000/svg">
  <path d="m1.0586 9.998c-0.03552 0.16696-0.053837 0.33712-0.054688 0.50781 9.901e-4 1.3405 1.0591 2.4416 2.3984 2.4961v0.99805l2.5977-1.5-2.5977-1.5v1c-0.78627-0.05336-1.3972-0.70606-1.3984-1.4941 4.082e-4 -0.17319 0.030805-0.345 0.089844-0.50781z"/>
  <path d="m12.07 5c-0.79765 0-1.5275 0.1732-2.1895 0.52148-1.0731 0.56201-1.5826 1.2435-1.9922 2.4785h-0.7168l-0.17188 1h0.80859c2.362e-4 0.33875-0.015931 0.65968 0.011719 1h-0.64844l-0.17188 1h0.94336c0.094567 0.42744 0.1028 0.49413 0.23438 0.79492 0.65374 1.4881 2.0146 2.2051 3.873 2.2051 0.62085 0 1.1892-0.1142 1.7031-0.34375v-1.2227c-0.43172 0.38786-1.0319 0.58008-1.8008 0.58008-0.55096 0-1.0643-0.13512-1.5371-0.4082-0.65786-0.37995-1.0715-0.69914-1.2441-1.6055h3.668l0.17383-1h-3.9727c-0.00279-0.33314-0.012641-0.6668 0-1h4.1387l0.16602-1h-4.2051c0.041116-0.32454 0.099828-0.39961 0.33008-0.75977 0.22614-0.34828 0.55635-0.58346 0.83594-0.77344 0.46872-0.32058 1.0475-0.48047 1.7383-0.48047 0.6373 0 1.2074 0.19987 1.709 0.59961l0.24609-1.1055c-0.52217-0.32058-1.1649-0.48047-1.9297-0.48047z"/>
  <path d="m10.598 0-2.5977 1.5 2.5977 1.5v-1.002c0.78627 0.053358 1.3972 0.70606 1.3984 1.4941-4.08e-4 0.17319-0.030804 0.345-0.089844 0.50781h1.0352c0.03552-0.16696 0.05384-0.33712 0.05469-0.50781-9.92e-4 -1.3405-1.0591-2.4416-2.3984-2.4961z"/>
  <path d="m3 0v1.0293c-0.42067 0.029208-0.82096 0.086442-1.1816 0.20117-0.48386 0.15391-0.85354 0.38109-1.1055 0.67969-0.25193 0.29551-0.37695 0.61339-0.37695 0.95508 0 0.31091 0.1027 0.59328 0.30664 0.8457 0.20794 0.24934 0.52153 0.45765 0.94141 0.62695 0.27973 0.11431 0.77542 0.23715 1.416 0.36523v2.4453c-0.23113-0.033071-0.44941-0.082571-0.6543-0.15039-0.39989-0.13544-0.69673-0.31186-0.88867-0.52734-0.18795-0.21856-0.30739-0.49537-0.35938-0.83398l-1.0977 0.072266c0.015995 0.45251 0.17656 0.86054 0.48047 1.2207 0.30791 0.35708 0.72978 0.62419 1.2656 0.80273 0.3559 0.1177 0.78677 0.18255 1.2539 0.22266v1.0449h1v-1.0195c0.5239-0.021235 1.012-0.093395 1.4414-0.24414 0.50386-0.17854 0.88833-0.42512 1.1562-0.74219 0.26792-0.32014 0.40234-0.66133 0.40234-1.0215 0-0.36324-0.1213-0.68389-0.36523-0.96094-0.24393-0.28012-0.62291-0.50979-1.1348-0.69141-0.286-0.10007-0.82043-0.21724-1.5-0.34375v-2.1387c0.4092 0.045257 0.76461 0.12473 1.0078 0.2793 0.3479 0.21856 0.5533 0.54282 0.61328 0.9707l1.1152-0.066406c-0.019994-0.3971-0.16372-0.75242-0.43164-1.0664-0.26792-0.31398-0.65249-0.55087-1.1523-0.71094-0.34236-0.11264-0.73564-0.17216-1.1523-0.20703v-1.0371zm0 1.8281v1.9434c-0.58505-0.12453-1.0311-0.24603-1.2012-0.36523-0.22793-0.15699-0.3418-0.35838-0.3418-0.60156 0-0.28012 0.16056-0.51783 0.48047-0.71484 0.23896-0.14761 0.61679-0.223 1.0625-0.26172zm1 3.0859c0.29468 0.060768 0.71815 0.13946 0.8457 0.17773 0.36789 0.10774 0.63301 0.24032 0.79297 0.40039 0.15995 0.15699 0.24023 0.34229 0.24023 0.55469 1e-7 0.20932-0.084001 0.40349-0.25195 0.58203-0.16395 0.17546-0.41596 0.31443-0.75586 0.41602-0.2573 0.076897-0.55422 0.11413-0.87109 0.13281z"/>
</svg>
